img/next_arrow.svg

<svg width="15" height="14" viewBox="0 0 15 14" fill="none" xmlns="http://www.w3.org/2000/svg">
<path d="M6.22321 1.09375C5.91071 1.40625 5.94196 1.875 6.22321 2.1875L10.0045 5.75H1.03571C0.598206 5.75 0.285706 6.09375 0.285706 6.5V7.5C0.285706 7.9375 0.598206 8.25 1.03571 8.25H10.0045L6.22321 11.8438C5.94196 12.1562 5.94196 12.625 6.22321 12.9375L6.91071 13.625C7.22321 13.9062 7.69196 13.9062 7.97321 13.625L14.067 7.53125C14.3482 7.25 14.3482 6.78125 14.067 6.46875L7.97321 0.40625C7.69196 0.125 7.22321 0.125 6.91071 0.40625L6.22321 1.09375Z" fill="white"/>
</svg>

<svg width="15" height="14" fill="none" xmlns="http://www.w3.org/2000/svg"><path d="M6.223 1.094c-.312.312-.281.781 0 1.093l3.782 3.563h-8.97a.74.74 0 0 0-.75.75v1c0 .438.313.75.75.75h8.97l-3.782 3.594a.814.814 0 0 0 0 1.094l.688.687c.312.281.781.281 1.062 0l6.094-6.094c.281-.281.281-.75 0-1.062L7.973.406c-.281-.281-.75-.281-1.062 0l-.688.688z" fill="#fff"/></svg>
